app/assets/images/heroicons/micro/currency-bangladeshi.svg

<svg width="16" height="16" viewBox="0 0 16 16" fill="none" xmlns="http://www.w3.org/2000/svg">
<path fill-rule="evenodd" clip-rule="evenodd" d="M15 8C15 11.866 11.866 15 8 15C4.13401 15 1 11.866 1 8C1 4.13401 4.13401 1 8 1C11.866 1 15 4.13401 15 8ZM5.25 4.70729C4.98617 4.80033 4.68069 4.74135 4.46967 4.53033C4.17678 4.23743 4.17678 3.76256 4.46967 3.46967C5.31117 2.62817 6.75 3.22415 6.75 4.41421V6H12.25C12.6642 6 13 6.33579 13 6.75C13 7.16421 12.6642 7.5 12.25 7.5H6.75V10.5977C6.75 11.1468 7.0454 11.4336 7.29476 11.4685C7.44315 11.4892 7.5951 11.5 7.75 11.5C8.67002 11.5 9.50155 11.1176 10.0933 10.5022H9.75C9.33579 10.5022 9 10.1664 9 9.75222C9 9.338 9.33579 9.00222 9.75 9.00222H11.4583C11.7078 9.00222 11.941 9.12628 12.0804 9.33321C12.2198 9.54014 12.2471 9.80284 12.1534 10.034C11.4486 11.772 9.74362 13 7.75 13C7.52539 13 7.304 12.9844 7.08697 12.954C5.82127 12.777 5.25 11.5784 5.25 10.5977V7.5H3.75C3.33579 7.5 3 7.16421 3 6.75C3 6.33579 3.33579 6 3.75 6H5.25V4.70729Z" fill="black"/>
</svg>

<svg xmlns="http://www.w3.org/2000/svg" viewBox="0 0 16 16" fill="currentColor" aria-hidden="true" data-slot="icon">
  <path fill-rule="evenodd" d="M15 8A7 7 0 1 1 1 8a7 7 0 0 1 14 0ZM5.25 4.707a.75.75 0 0 1-.78-1.237c.841-.842 2.28-.246 2.28.944V6h5.5a.75.75 0 0 1 0 1.5h-5.5v3.098c0 .549.295.836.545.87a3.241 3.241 0 0 0 2.799-.966H9.75a.75.75 0 0 1 0-1.5h1.708a.75.75 0 0 1 .695 1.032 4.751 4.751 0 0 1-5.066 2.92c-1.266-.177-1.837-1.376-1.837-2.356V7.5h-1.5a.75.75 0 0 1 0-1.5h1.5V4.707Z" clip-rule="evenodd"/>
</svg>
